<?xml version="1.0" encoding="UTF-8"?>
<map version="1.10" tiledversion="1.11.2" orientation="orthogonal" renderorder="right-down" width="10" height="10" tilewidth="32" tileheight="32" infinite="0" nextlayerid="3" nextobjectid="13">
 <tileset firstgid="1" name="Grass" tilewidth="32" tileheight="32" tilecount="64" columns="8">
  <image source="Grass.png" width="256" height="256"/>
 </tileset>
 <tileset firstgid="65" name="box" tilewidth="32" tileheight="32" tilecount="1" columns="1">
  <image source="box.png" width="32" height="32"/>
 </tileset>
 <layer id="1" name="Tile Layer 1" width="10" height="10">
  <data encoding="csv">
26,49,9,49,22,41,5,33,6,42,
1,34,7,49,21,42,11,49,15,49,
32,33,24,34,24,41,15,42,16,33,
32,34,13,49,5,41,8,33,5,34,
31,50,20,50,7,41,16,49,25,41,
18,41,25,41,31,33,13,34,24,49,
25,50,7,34,22,33,7,41,27,49,
6,42,16,41,32,34,19,49,3,34,
12,34,3,41,24,33,19,41,12,49,
18,49,1,50,32,42,21,33,25,34
</data>
 </layer>
 <objectgroup id="2" name="Objects">
  <object id="1" gid="65" x="128" y="128" width="32" height="32"/>
  <object id="7" gid="65" x="96" y="64" width="32" height="32"/>
  <object id="8" gid="65" x="64" y="192" width="32" height="32"/>
  <object id="9" gid="65" x="192" y="128" width="32" height="32"/>
  <object id="10" gid="65" x="192" y="64" width="32" height="32"/>
  <object id="11" gid="65" x="256" y="288" width="32" height="32"/>
  <object id="12" gid="65" x="32" y="96" width="32" height="32"/>
 </objectgroup>
</map>
